icons/linear-ele-other-no-smoking.svg

<svg xmlns="http://www.w3.org/2000/svg" width="32px" height="32px" viewBox="0 0 32 32" version="1.1">
    <title>linear-ele-other-no-smoking</title>
    <g id="linear-ele-other-no-smoking" stroke-width="1" fill-rule="evenodd">
        <path d="M23.7071068,13.2928932 C24.0976311,13.6834175 24.0976311,14.3165825 23.7071068,14.7071068 L9.70710678,28.7071068 C9.31658249,29.0976311 8.68341751,29.0976311 8.29289322,28.7071068 C7.90236893,28.3165825 7.90236893,27.6834175 8.29289322,27.2928932 L10.585,24.999 L7,25 C6.44771525,25 6,24.5522847 6,24 L6,18 C6,17.4477153 6.44771525,17 7,17 L18.585,16.999 L22.2928932,13.2928932 C22.6834175,12.9023689 23.3165825,12.9023689 23.7071068,13.2928932 Z M24.243,16.9996797 L29,17 C29.5522847,17 30,17.4477153 30,18 L30,24 C30,24.5522847 29.5522847,25 29,25 L16.242,24.9996797 L18.243,22.9996797 L22,23 L22,19.2426797 L24.243,16.9996797 Z M16.585,18.999 L8,19 L8,23 L12.585,22.999 L16.585,18.999 Z M28,19 L24,19 L24,23 L28,23 L28,19 Z M3,17 C3.55228475,17 4,17.4477153 4,18 L4,24 C4,24.5522847 3.55228475,25 3,25 C2.44771525,25 2,24.5522847 2,24 L2,18 C2,17.4477153 2.44771525,17 3,17 Z M5,6.5 C5.55228475,6.5 6,6.94771525 6,7.5 L6,11.5 C6,12.0522847 5.55228475,12.5 5,12.5 C4.44771525,12.5 4,12.0522847 4,11.5 L4,7.5 C4,6.94771525 4.44771525,6.5 5,6.5 Z M9,3 C9.55228475,3 10,3.44771525 10,4 L10,11.5 C10,12.0522847 9.55228475,12.5 9,12.5 C8.44771525,12.5 8,12.0522847 8,11.5 L8,4 C8,3.44771525 8.44771525,3 9,3 Z" id="&#24418;&#29366;" fill-rule="nonzero" />
    </g>
</svg>

<svg xmlns="http://www.w3.org/2000/svg" viewBox="0 0 32 32"><path fill="currentColor" d="M23.707 13.293a1 1 0 0 1 0 1.414l-14 14a1 1 0 1 1-1.414-1.414l2.292-2.294L7 25a1 1 0 0 1-1-1v-6a1 1 0 0 1 1-1l11.585-.001 3.708-3.706a1 1 0 0 1 1.414 0M24.243 17H29a1 1 0 0 1 1 1v6a1 1 0 0 1-1 1H16.242l2.001-2H22v-3.757zm-7.658 1.999L8 19v4l4.585-.001zM28 19h-4v4h4zM3 17a1 1 0 0 1 1 1v6a1 1 0 0 1-2 0v-6a1 1 0 0 1 1-1M5 6.5a1 1 0 0 1 1 1v4a1 1 0 0 1-2 0v-4a1 1 0 0 1 1-1M9 3a1 1 0 0 1 1 1v7.5a1 1 0 0 1-2 0V4a1 1 0 0 1 1-1"/></svg>
